assets/icons/icon_book.svg

<svg width="30" height="30" viewBox="0 0 30 30" fill="none"
    xmlns="http://www.w3.org/2000/svg">
    <path d="M17.9609 23.4697L15.3347 24.5511C15.2275 24.5953 15.1137 24.6173 15.0001 24.6173C14.8864 24.6173 14.7726 24.5953 14.6654 24.5511L12.0392 23.4697H0V26.8523C0 27.3377 0.393516 27.7313 0.878906 27.7313H29.1211C29.6065 27.7313 30 27.3377 30 26.8523V23.4697H17.9609Z" fill="#6366F1"/>
    <path d="M12.213 21.7119C12.3278 21.7119 12.4414 21.7344 12.5476 21.7781L14.1211 22.426V22.3607V2.89604C13.5147 2.50006 12.7915 2.26868 12.0148 2.26868H0.878906C0.393516 2.26868 0 2.66219 0 3.14758V21.7118H12.213V21.7119ZM10.0454 14.3219H4.07572C3.59033 14.3219 3.19682 13.9284 3.19682 13.443C3.19682 12.9576 3.59033 12.5641 4.07572 12.5641H10.0454C10.5308 12.5641 10.9243 12.9576 10.9243 13.443C10.9243 13.9284 10.5308 14.3219 10.0454 14.3219ZM10.9243 17.2237C10.9243 17.7091 10.5308 18.1026 10.0454 18.1026H4.07572C3.59033 18.1026 3.19682 17.7091 3.19682 17.2237C3.19682 16.7383 3.59033 16.3448 4.07572 16.3448H10.0454C10.5308 16.3448 10.9243 16.7383 10.9243 17.2237ZM10.0454 10.5412H4.07572C3.59033 10.5412 3.19682 10.1477 3.19682 9.66233C3.19682 9.17694 3.59033 8.78342 4.07572 8.78342H10.0454C10.5308 8.78342 10.9243 9.17694 10.9243 9.66233C10.9243 10.1477 10.5308 10.5412 10.0454 10.5412Z" fill="#4F46E5"/>
    <path d="M15.8789 22.3607V22.426L17.4524 21.7781C17.5586 21.7343 17.6722 21.7118 17.787 21.7118H30V3.14764C30 2.66225 29.6065 2.26874 29.1211 2.26874H17.9852C17.2085 2.26874 16.4853 2.50012 15.8789 2.8961V22.3607ZM25.6373 14.3219H19.6678C19.1824 14.3219 18.7888 13.9284 18.7888 13.443C18.7888 12.9576 19.1824 12.5641 19.6678 12.5641H25.6374C26.1228 12.5641 26.5163 12.9576 26.5163 13.443C26.5163 13.9284 26.1228 14.3219 25.6373 14.3219ZM26.5163 17.2237C26.5163 17.7091 26.1227 18.1026 25.6373 18.1026H19.6678C19.1824 18.1026 18.7888 17.7091 18.7888 17.2237C18.7888 16.7383 19.1824 16.3448 19.6678 16.3448H25.6374C26.1228 16.3448 26.5163 16.7383 26.5163 17.2237ZM25.6373 10.5412H19.6678C19.1824 10.5412 18.7888 10.1477 18.7888 9.66233C18.7888 9.17694 19.1824 8.78343 19.6678 8.78343H25.6374C26.1228 8.78343 26.5163 9.17694 26.5163 9.66233C26.5163 10.1477 26.1228 10.5412 25.6373 10.5412Z" fill="#818CF8"/>
</svg>

<svg fill="none" xmlns="http://www.w3.org/2000/svg" viewBox="0 0 30 30"><path d="m17.96 23.47-2.63 1.08a1 1 0 0 1-.66 0l-2.63-1.08H0v3.38c0 .49.4.88.88.88h28.24c.49 0 .88-.4.88-.88v-3.38z" fill="#6366F1"/><path d="M12.21 21.71q.18 0 .34.07l1.57.65V2.9c-.6-.4-1.33-.63-2.1-.63H.87c-.49 0-.88.4-.88.88V21.7zm-2.16-7.39H4.08a.88.88 0 0 1 0-1.76h5.97a.88.88 0 0 1 0 1.76m.87 2.9c0 .49-.39.88-.87.88H4.08a.88.88 0 0 1 0-1.76h5.97c.48 0 .87.4.87.88m-.87-6.68H4.08a.88.88 0 0 1 0-1.76h5.97a.88.88 0 0 1 0 1.76" fill="#4F46E5"/><path d="M15.88 22.36v.07l1.57-.65q.16-.07.34-.07H30V3.15c0-.49-.4-.88-.88-.88H18q-1.18.02-2.11.63zm9.76-8.04h-5.97a.88.88 0 1 1 0-1.76h5.97a.88.88 0 1 1 0 1.76m.88 2.9c0 .49-.4.88-.88.88h-5.97a.88.88 0 1 1 0-1.76h5.97c.48 0 .88.4.88.88m-.88-6.68h-5.97a.88.88 0 1 1 0-1.76h5.97a.88.88 0 1 1 0 1.76" fill="#818CF8"/></svg>
